X: 20222
T: Joe Burke's
R: polka
M: 2/4
K: Amajor
|:ec/e/ ae|fe ce|AE Ac|B2 Bc|
E/F/G/A/ B>c|de fe|ce dB|1 c2 c2:|2 A2 A2||
|:f>g ab|ag fe|c/d/c/B/ Ac|B2 Bc|
d>c BA|Ge dB|1 GE GB|c2 c2:|2 GE FG|A2 A2||

